X:1
T:Partition sans titre
C:Compositeur / Arrangeur
L:1/8
M:4/4
I:linebreak $
K:G
V:1 treble nm="Violon" snm="Vln."
V:1
 dg |"G" b2 bg"D" a2 af |"G" gfgb d3 g |"D" fdAB"C" c3 e |"G" dBGA B2 dg |"G" b2 bg"D" a2 af | %6
"G" gfgb d3 g |"D" fdAB"C" cdef |1"G" g2 b2 g2 :|2"G" g2 b2 gfgB |:"G" G3 B d2 gf | %11
"C" efge"G" d3 g |"D" fdAB"C" cBce |"G" dBGA B2 BA |"G" G2 GB d2 gf |"C" efge"G" d3 g | %16
"D" fdAB"C" cdef |1"G" g2 b2 gfgB :|2"G" g2 b2 g2 |] %19
